svg/car.svg

<svg xmlns="http://www.w3.org/2000/svg" viewBox="0 0 24 24"><path d="m5 11 1.5-4.5h11L19 11m-1.5 5a1.5 1.5 0 0 1-1.5-1.5 1.5 1.5 0 0 1 1.5-1.5 1.5 1.5 0 0 1 1.5 1.5 1.5 1.5 0 0 1-1.5 1.5m-11 0A1.5 1.5 0 0 1 5 14.5 1.5 1.5 0 0 1 6.5 13 1.5 1.5 0 0 1 8 14.5 1.5 1.5 0 0 1 6.5 16M18.92 6c-.2-.58-.76-1-1.42-1h-11c-.66 0-1.22.42-1.42 1L3 12v8a1 1 0 0 0 1 1h1a1 1 0 0 0 1-1v-1h12v1a1 1 0 0 0 1 1h1a1 1 0 0 0 1-1v-8z"/></svg>

<?xml version="1.0" encoding="UTF-8"?><!DOCTYPE svg PUBLIC "-//W3C//DTD SVG 1.1//EN" "http://www.w3.org/Graphics/SVG/1.1/DTD/svg11.dtd"><svg xmlns="http://www.w3.org/2000/svg" xmlns:xlink="http://www.w3.org/1999/xlink" version="1.1" id="mdi-car" width="24" height="24" viewBox="0 0 24 24"><path d="M5,11L6.5,6.5H17.5L19,11M17.5,16A1.5,1.5 0 0,1 16,14.5A1.5,1.5 0 0,1 17.5,13A1.5,1.5 0 0,1 19,14.5A1.5,1.5 0 0,1 17.5,16M6.5,16A1.5,1.5 0 0,1 5,14.5A1.5,1.5 0 0,1 6.5,13A1.5,1.5 0 0,1 8,14.5A1.5,1.5 0 0,1 6.5,16M18.92,6C18.72,5.42 18.16,5 17.5,5H6.5C5.84,5 5.28,5.42 5.08,6L3,12V20A1,1 0 0,0 4,21H5A1,1 0 0,0 6,20V19H18V20A1,1 0 0,0 19,21H20A1,1 0 0,0 21,20V12L18.92,6Z" /></svg>
